src/pos-icons/router.svg

<svg height="24" viewBox="0 0 24 24" width="24" xmlns="http://www.w3.org/2000/svg"><path d="m12 2c-5.5 0-10 4.5-10 10s4.5 10 10 10 10-4.5 10-10-4.5-10-10-10m0 18c-4.42 0-8-3.58-8-8s3.58-8 8-8 8 3.58 8 8-3.58 8-8 8m1-7v3h2l-3 3-3-3h2v-3m-6 0h3v2l3-3-3-3v2h-3m6 0v-3h-2l3-3 3 3h-2v3m6 0h-3v-2l-3 3 3 3v-2h3"/></svg>

<?xml version="1.0" encoding="UTF-8"?><!DOCTYPE svg PUBLIC "-//W3C//DTD SVG 1.1//EN" "http://www.w3.org/Graphics/SVG/1.1/DTD/svg11.dtd"><svg xmlns="http://www.w3.org/2000/svg" xmlns:xlink="http://www.w3.org/1999/xlink" version="1.1" id="mdi-router" width="24" height="24" viewBox="0 0 24 24"><path d="M12 2C6.5 2 2 6.5 2 12C2 17.5 6.5 22 12 22C17.5 22 22 17.5 22 12C22 6.5 17.5 2 12 2M12 20C7.58 20 4 16.42 4 12C4 7.58 7.58 4 12 4C16.42 4 20 7.58 20 12C20 16.42 16.42 20 12 20M13 13V16H15L12 19L9 16H11V13M5 13H8V15L11 12L8 9V11H5M11 11V8H9L12 5L15 8H13V11M19 11H16V9L13 12L16 15V13H19" /></svg>
